X:1
T:034 - Plena Graça
T:Letra: Henry Maxwell Wright (1849-1931)
T:Música: Herbert H. Booth (1862 - ?)
M:4/4
L:1/8
K:G
V:1
"G"B3B ^AB cB | "D"D2F2 "G"G4 | "D7"c3c Bc dc | "G"D2G2B4 | B3G "C"AG FE | "G"D2 GB d2 "Am"c2 | "G/D"B4 "D7"A4 | "G"G6 z2 |]
w: 1.~Ple-na gra-ça pa-ra me sal-var, San-gue pu-ro pa-ra me la-var E po-der pra sem-pre me guar_dar Tem meu Se-nhor.  
W:
W:
W: Plena graça para me salvar,
W: Sangue puro para me lavar
W: E poder pra sempre me guardar
W: Tem meu Senhor.
W:         
W:





%wordsfont Times-Roman 13.0
%vocalfont Times-Roman 13.0
